icons/sidebar-collapse-16.svg

<svg width="16" height="16" viewBox="0 0 16 16" fill="none" xmlns="http://www.w3.org/2000/svg">
<path fill-rule="evenodd" clip-rule="evenodd" d="M6.8232 7.82323L4.42677 5.42678C4.26928 5.26929 4 5.38083 4 5.60356V10.3964C4 10.6192 4.26928 10.7307 4.42677 10.5732L6.8232 8.17678C6.92083 8.07915 6.92083 7.92086 6.8232 7.82323Z" fill="black"/>
<path fill-rule="evenodd" clip-rule="evenodd" d="M1.75 0C0.783502 0 0 0.783501 0 1.75V14.25C0 15.2165 0.783502 16 1.75 16H14.25C15.2165 16 16 15.2165 16 14.25V1.75C16 0.783502 15.2165 0 14.25 0H1.75ZM1.5 1.75C1.5 1.61193 1.61193 1.5 1.75 1.5H9.5V14.5H1.75C1.61193 14.5 1.5 14.3881 1.5 14.25V1.75ZM11 14.5V1.5H14.25C14.3881 1.5 14.5 1.61193 14.5 1.75V14.25C14.5 14.3881 14.3881 14.5 14.25 14.5H11Z" fill="black"/>
</svg>

<svg xmlns="http://www.w3.org/2000/svg" width="16" height="16" viewBox="0 0 16 16"><path fill-rule="evenodd" d="M6.823 7.823L4.427 5.427A.25.25 0 004 5.604v4.792c0 .223.27.335.427.177l2.396-2.396a.25.25 0 000-.354z"/><path fill-rule="evenodd" d="M1.75 0A1.75 1.75 0 000 1.75v12.5C0 15.216.784 16 1.75 16h12.5A1.75 1.75 0 0016 14.25V1.75A1.75 1.75 0 0014.25 0H1.75zM1.5 1.75a.25.25 0 01.25-.25H9.5v13H1.75a.25.25 0 01-.25-.25V1.75zM11 14.5v-13h3.25a.25.25 0 01.25.25v12.5a.25.25 0 01-.25.25H11z"/></svg>
